X:88
T:Temperance Reel
C: Traditional
R: Reel
M:4/4
K:G
(3DEF|:"G"G2GF GABc| dBge dBAc| "Em"BEED EFGA| "D"BGAF GFED|
|"G"G2GF GABc| dBge dBAc| "Em"BEED EFGA|1 "D"BdAF "G"G2(3DEF :|2 "D"BdAF "G"G2 B2|]
| "Em"Beed e3f| geaf gfed| "D"Bdde d3e| geaf gfed|
|    "Em"Beed e3f| geaf gfed| BEED EFGA |1 "D"BdAF "G"G2 B2 :|2"D"BGAF "G"GFED|]


